packages/ffe-icons/icons/open/300/md/lan.svg

<svg xmlns="http://www.w3.org/2000/svg" height="24" viewBox="0 -960 960 960" width="24"><path d="M130.001-150.769v-138.462q0-25.308 17.73-43.038 17.73-17.73 43.038-17.73h59.232v-87.693q0-29.923 21.192-51.115 21.192-21.192 51.115-21.192h127.693v-100.002h-59.232q-25.308 0-43.038-17.73-17.73-17.73-17.73-43.038v-138.462q0-25.308 17.73-43.038 17.73-17.73 43.038-17.73h178.462q25.308 0 43.038 17.73 17.73 17.73 17.73 43.038v138.462q0 25.308-17.73 43.038-17.73 17.73-43.038 17.73h-59.232v100.002h127.693q29.923 0 51.115 21.192 21.192 21.192 21.192 51.115v87.693h59.232q25.308 0 43.038 17.73 17.73 17.73 17.73 43.038v138.462q0 25.308-17.73 43.038-17.73 17.73-43.038 17.73H590.769q-25.308 0-43.038-17.73-17.73-17.73-17.73-43.038v-138.462q0-25.308 17.73-43.038 17.73-17.73 43.038-17.73h59.232v-87.693q0-5.385-3.462-8.847-3.462-3.462-8.847-3.462H322.308q-5.385 0-8.847 3.462-3.462 3.462-3.462 8.847v87.693h59.232q25.308 0 43.038 17.73 17.73 17.73 17.73 43.038v138.462q0 25.308-17.73 43.038-17.73 17.73-43.038 17.73H190.769q-25.308 0-43.038-17.73-17.73-17.73-17.73-43.038Zm259.998-519.23h180.002v-140.002H389.999v140.002Zm-200 520h180.002v-140.002H189.999v140.002Zm400 0h180.002v-140.002H589.999v140.002ZM480-669.999ZM370.001-290.001Zm219.998 0Z"/></svg>

<svg xmlns="http://www.w3.org/2000/svg" height="24" viewBox="0 -960 960 960" width="24"><path d="M130-150.77v-138.46q0-25.31 17.73-43.04T190.77-350H250v-87.69q0-29.92 21.19-51.12Q292.39-510 322.31-510H450v-100h-59.23q-25.31 0-43.04-17.73T330-670.77v-138.46q0-25.31 17.73-43.04T390.77-870h178.46q25.31 0 43.04 17.73T630-809.23v138.46q0 25.31-17.73 43.04T569.23-610H510v100h127.69q29.92 0 51.12 21.19Q710-467.61 710-437.69V-350h59.23q25.31 0 43.04 17.73T830-289.23v138.46q0 25.31-17.73 43.04T769.23-90H590.77q-25.31 0-43.04-17.73T530-150.77v-138.46q0-25.31 17.73-43.04T590.77-350H650v-87.69q0-5.39-3.46-8.85t-8.85-3.46H322.31q-5.39 0-8.85 3.46t-3.46 8.85V-350h59.23q25.31 0 43.04 17.73T430-289.23v138.46q0 25.31-17.73 43.04T369.23-90H190.77q-25.31 0-43.04-17.73T130-150.77ZM390-670h180v-140H390v140ZM190-150h180v-140H190v140Zm400 0h180v-140H590v140ZM480-670ZM370-290Zm220 0Z"/></svg>
